src/categories-icons-sprite/categories/svg-cat-books-magazine.svg

<svg width="24" height="28" viewBox="0 0 24 28" fill="none" xmlns="http://www.w3.org/2000/svg">
<path class="p-E0F4FE" d="M23.4062 26.0649H0V2.20095C0 0.98544 0.98544 0 2.20095 0H23.4062V26.0649Z" fill="#B9DFFC"/>
<path class="p-BCDBFD" d="M11.8125 0H23.4062V26.0649H11.8125V0Z" fill="#A1D1FD"/>
<path class="p-FED843" d="M3.10059 6.02515H20.2889V7.66577H3.10059V6.02515Z" fill="#5FBEFF"/>
<path class="p-FD7EB8" d="M9.30155 11.1763C9.30155 12.4504 8.26862 13.4834 6.99443 13.4834H5.47899C4.20481 13.4834 3.17188 12.4504 3.17188 11.1763C3.17188 9.90207 4.20481 8.86914 5.479 8.86914H6.99443C8.26862 8.86914 9.30155 9.90207 9.30155 11.1763Z" fill="#58ADE5"/>
<path class="p-2D3C72" d="M3.11719 20.0593H9.38807V21.6999H3.11719V20.0593Z" fill="#5FBEFF"/>
<path class="p-2D3C72" d="M3.11719 17.3247H9.38807V18.9653H3.11719V17.3247Z" fill="#5FBEFF"/>
<path class="p-1A2958" d="M14.0879 20.0593H20.3039V21.6999H14.0879V20.0593Z" fill="#2D3C72"/>
<path class="p-1A2958" d="M14.0879 17.3247H20.3039V18.9653H14.0879V17.3247Z" fill="#2D3C72"/>
<path class="p-54469D" d="M10.9375 9.03296H20.289V10.6736H10.9375V9.03296Z" fill="#65B3E7"/>
<path class="p-54469D" d="M10.9375 11.7676H20.289V13.4082H10.9375V11.7676Z" fill="#65B3E7"/>
<path class="p-FED843" d="M10.8828 17.345H12.5234V21.7744H10.8828V17.345Z" fill="#5FBEFF"/>
<path class="p-FED843" d="M3.11719 14.5022H20.289V16.1428H3.11719V14.5022Z" fill="#5FBEFF"/>
<path class="p-1AAA94" d="M4.97369 4.37255L4.96771 3.41873L4.51312 4.18435H4.20208L3.74728 3.45163V4.37277H3.10449V2.27905H3.68469L4.36657 3.39459L5.03051 2.27905H5.61071L5.61669 4.37255H4.97369Z" fill="#4D98CB"/>
<path class="p-1AAA94" d="M7.38433 4.00771H6.58859L6.44824 4.37258H5.73047L6.64541 2.2793H7.33947L8.25463 4.37258H7.52468L7.38433 4.00771ZM7.18972 3.49929L6.98635 2.97293L6.78299 3.49929H7.18972Z" fill="#4D98CB"/>
<path class="p-1AAA94" d="M9.72332 3.26898H10.3364V4.15423C10.0822 4.32769 9.73229 4.4204 9.42425 4.4204C8.74835 4.4204 8.25488 3.96881 8.25488 3.3258C8.25488 2.6828 8.74835 2.2312 9.4392 2.2312C9.85192 2.2312 10.1839 2.37476 10.3962 2.63495L9.94464 3.03271C9.81304 2.88019 9.66052 2.80243 9.47509 2.80243C9.16406 2.80243 8.96667 3.0028 8.96667 3.3258C8.96667 3.63983 9.16406 3.84918 9.46612 3.84918C9.55285 3.84918 9.63659 3.83422 9.72332 3.79833V3.26898Z" fill="#4D98CB"/>
<path class="p-1AAA94" d="M12.065 4.00771H11.2695L11.1289 4.37258H10.4111L11.3263 2.2793H12.0201L12.9353 4.37258H12.2056L12.065 4.00771ZM11.8706 3.49929L11.6672 2.97293L11.4639 3.49929H11.8706Z" fill="#4D98CB"/>
<path class="p-149084" d="M14.8976 3.82525V4.37255H12.9746V3.9389L13.9316 2.82635H13.0045V2.27905H14.8498V2.71271L13.8928 3.82525H14.8976Z" fill="#4D98CB"/>
<path class="p-149084" d="M15.1045 2.27905H15.8103V4.37255H15.1045V2.27905Z" fill="#4D98CB"/>
<path class="p-149084" d="M18.214 2.27905V4.37255H17.6338L16.8383 3.4215V4.37255H16.1504V2.27905H16.7306L17.5261 3.2301V2.27905H18.214Z" fill="#4D98CB"/>
<path class="p-149084" d="M20.2953 3.8402V4.37255H18.5547V2.27905H20.2564V2.8114H19.2485V3.05664H20.1338V3.56506H19.2485V3.8402H20.2953Z" fill="#4D98CB"/>
<path class="p-EDBE2B" d="M11.8125 6.02515H20.289V7.66577H11.8125V6.02515Z" fill="#58ADE5"/>
<path class="p-1A2958" d="M14.0879 20.0593H20.3039V21.6999H14.0879V20.0593Z" fill="#4D98CB"/>
<path class="p-1A2958" d="M14.0879 17.3247H20.3039V18.9653H14.0879V17.3247Z" fill="#4D98CB"/>
<path class="p-1A2958" d="M11.8125 9.03296H20.289V10.6736H11.8125V9.03296Z" fill="#4D98CB"/>
<path class="p-1A2958" d="M11.8125 11.7676H20.289V13.4082H11.8125V11.7676Z" fill="#4D98CB"/>
<path class="p-EDBE2B" d="M11.8125 17.345H12.5234V21.7744H11.8125V17.345Z" fill="#58ADE5"/>
<path class="p-EDBE2B" d="M11.8125 14.5022H20.289V16.1428H11.8125V14.5022Z" fill="#58ADE5"/>
<path class="p-149084" d="M12.0212 2.27905H11.8125V3.34631L11.8717 3.49926H11.8125V4.00768H12.0661L12.2066 4.37255H12.9364L12.0212 2.27905Z" fill="#4D98CB"/>
<path class="p-149084" d="M14.8986 3.82525V4.37255H12.9756V3.9389L13.9326 2.82635H13.0055V2.27905H14.8508V2.71271L13.8937 3.82525H14.8986Z" fill="#4D98CB"/>
<path class="p-149084" d="M15.1045 2.27905H15.8103V4.37255H15.1045V2.27905Z" fill="#4D98CB"/>
<path class="p-149084" d="M18.215 2.27905V4.37255H17.6348L16.8392 3.4215V4.37255H16.1514V2.27905H16.7316L17.5271 3.2301V2.27905H18.215Z" fill="#4D98CB"/>
<path class="p-149084" d="M20.2963 3.8402V4.37255H18.5557V2.27905H20.2574V2.8114H19.2495V3.05664H20.1348V3.56506H19.2495V3.8402H20.2963Z" fill="#4D98CB"/>
<path class="p-9BBAD9" d="M23.4062 28H1.98412C0.888242 28 0 27.1118 0 26.0159C0 24.9202 0.888242 24.032 1.98412 24.032H23.4062V28Z" fill="#65B3E7"/>
<path class="p-62739A" d="M11.8125 24.032H23.4062V28H11.8125V24.032Z" fill="#4D98CB"/>
</svg>

<svg width="24" height="28" fill="none" xmlns="http://www.w3.org/2000/svg"><path class="p-E0F4FE" d="M23.406 26.065H0V2.2C0 .985.985 0 2.201 0h21.205v26.065z" fill="#B9DFFC"/><path class="p-BCDBFD" d="M11.813 0h11.593v26.065H11.813V0z" fill="#A1D1FD"/><path class="p-FED843" d="M3.1 6.025H20.29v1.64H3.1v-1.64z" fill="#5FBEFF"/><path class="p-FD7EB8" d="M9.302 11.176a2.307 2.307 0 01-2.308 2.307H5.48a2.307 2.307 0 010-4.614h1.515a2.307 2.307 0 012.308 2.307z" fill="#58ADE5"/><path class="p-2D3C72" d="M3.117 20.06h6.271v1.64h-6.27v-1.64zM3.117 17.325h6.271v1.64h-6.27v-1.64z" fill="#5FBEFF"/><path class="p-1A2958" d="M14.088 20.06h6.216v1.64h-6.216v-1.64zM14.088 17.325h6.216v1.64h-6.216v-1.64z" fill="#2D3C72"/><path class="p-54469D" d="M10.938 9.033h9.351v1.64h-9.352v-1.64zM10.938 11.768h9.351v1.64h-9.352v-1.64z" fill="#65B3E7"/><path class="p-FED843" d="M10.883 17.345h1.64v4.43h-1.64v-4.43zM3.117 14.502H20.29v1.64H3.117v-1.64z" fill="#5FBEFF"/><path class="p-1AAA94" d="M4.974 4.373l-.006-.954-.455.765h-.31l-.456-.732v.92h-.643V2.28h.58l.683 1.116.664-1.116h.58l.006 2.094h-.643zM7.384 4.008H6.59l-.14.365H5.73l.915-2.094h.694l.916 2.094h-.73l-.14-.365zm-.194-.509l-.204-.526-.203.526h.407zM9.723 3.269h.613v.885a1.691 1.691 0 01-.912.266c-.676 0-1.17-.451-1.17-1.094S8.749 2.23 9.44 2.23c.413 0 .745.144.957.404l-.451.398a.597.597 0 00-.47-.23c-.31 0-.508.2-.508.523 0 .314.197.523.5.523.086 0 .17-.015.256-.05v-.53zM12.065 4.008h-.795l-.141.365h-.718l.915-2.094h.694l.915 2.094h-.73l-.14-.365zm-.194-.509l-.204-.526-.203.526h.407z" fill="#4D98CB"/><path class="p-149084" d="M14.898 3.825v.548h-1.923v-.434l.957-1.113h-.928V2.28h1.846v.434l-.957 1.112h1.005zM15.104 2.279h.706v2.094h-.706V2.279zM18.214 2.279v2.094h-.58l-.796-.952v.952h-.688V2.279h.58l.796.951V2.28h.688zM20.295 3.84v.533h-1.74V2.279h1.701v.532h-1.008v.246h.886v.508h-.886v.275h1.047z" fill="#4D98CB"/><path class="p-EDBE2B" d="M11.813 6.025h8.476v1.64h-8.477v-1.64z" fill="#58ADE5"/><path class="p-1A2958" d="M14.088 20.06h6.216v1.64h-6.216v-1.64zM14.088 17.325h6.216v1.64h-6.216v-1.64zM11.813 9.033h8.476v1.64h-8.477v-1.64zM11.813 11.768h8.476v1.64h-8.477v-1.64z" fill="#4D98CB"/><path class="p-EDBE2B" d="M11.813 17.345h.71v4.43h-.71v-4.43zM11.813 14.502h8.476v1.64h-8.477v-1.64z" fill="#58ADE5"/><path class="p-149084" d="M12.021 2.279h-.209v1.067l.06.153h-.06v.509h.254l.14.365h.73l-.915-2.094zM14.899 3.825v.548h-1.923v-.434l.957-1.113h-.928V2.28h1.846v.434l-.957 1.112h1.005zM15.104 2.279h.706v2.094h-.706V2.279zM18.215 2.279v2.094h-.58l-.796-.952v.952h-.688V2.279h.58l.796.951V2.28h.688zM20.296 3.84v.533h-1.74V2.279h1.701v.532H19.25v.246h.886v.508h-.886v.275h1.047z" fill="#4D98CB"/><path class="p-9BBAD9" d="M23.406 28H1.984a1.984 1.984 0 110-3.968h21.422V28z" fill="#65B3E7"/><path class="p-62739A" d="M11.813 24.032h11.593V28H11.813v-3.968z" fill="#4D98CB"/></svg>
